!!! OTL: Berkowitz621
!!! Chapter: 1
!!! Section: V
!!! Page: 158
!!! Mode: 
!!! Encoder: AR
**kern
*staff1
=1-
!!pagebreak:original
*clefG2
*k[]
*C:
*M4/4
4b\
4b\
4a#/
4b\
=2
4g/
4b\
2c/
=3
4d#/
4f#/
q0.664062cc\
q0.667969ddn\
q0.667969b\
=4
4e-/
4g-/
4dn/
4r
=5
4d-/
4cc\
4a/
4b\
=6
4b-\
4g/
2f/
=7
!!linebreak:original
4dd-\
4dd-\
4cc\
4dd-\
=8
2b\
2g/
=9
4b-\
4b-\
4Bn/
4b-\
=10
q0.664062g/
q0.667969b-\
q0.667969g/
2Bn/
=11
4A-/
4g/
4e/
4f#/
=12
!!linebreak:original
4d/
4fn/
2dd-\
=13
2cc\
2a/
=14
4cc\
4a/
2c#/
=15
4e/
4e/
q0.664062cn/
q0.667969d/
q0.667969f#/
=16
2d#/
4d#/
4r
==
*-
